assets/pluralsight/mono.svg

<svg viewBox="0 0 24 24" xmlns="http://www.w3.org/2000/svg"><path d="m15.72 1.755c-5.64-2.056-11.909.87-13.949 6.495-2.071 5.699.854 11.956 6.494 14.01 5.655 2.055 11.956-.87 14.01-6.51 2.057-5.67-.87-11.939-6.524-13.995zm-3.72 22.245c-6.6 0-12-5.4-12-12s5.4-12 12-12 12 5.4 12 12-5.4 12-12 12m-3.074-18.195v12.391l10.754-6.196zm1.049 1.769 7.65 4.426-7.65 4.426zm-3.526-.419v9.689l8.401-4.844zm1.051 1.8 5.311 3.045-5.311 3.061v-6.122"/></svg>

<svg xmlns="http://www.w3.org/2000/svg" viewBox="0 0 24 24"><path d="M15.72 1.755C10.08-.301 3.811 2.625 1.771 8.25c-2.071 5.699.854 11.956 6.494 14.01 5.655 2.055 11.956-.87 14.01-6.51 2.057-5.67-.87-11.939-6.524-13.995zM12 24C5.4 24 0 18.6 0 12S5.4 0 12 0s12 5.4 12 12-5.4 12-12 12M8.926 5.805v12.391L19.68 12zm1.049 1.769L17.625 12l-7.65 4.426zm-3.526-.419v9.689L14.85 12zm1.051 1.8L12.811 12 7.5 15.061V8.939"/></svg>
